X:49
T:Contradiction
Z: id:dc-reel-44
M:C
L:1/8
K:A Major
ed|c3A BGED|CEAc dfed|c3A GABc|defg a2:|!
eg|aAA2 cABA|GBEB GBEg|aAA2 cABA|GBEG Aceg|!
aAA2 cABA|GBEB GBEg|agfe fedc|BAGB A2|]!
ce|a2c'e aec'e|bed'e bed'e|c'ee'e c'ee'e|dcBA EA:|!
Ad|cee2 ceae|dBcA BEEd|cee2 ceae|dfbg afed|!
cee2 ceae|faec B2cd|ecea fdfa|gbeg a2|]!

